cssgg/insert-after-o.svg

<svg
  width="24"
  height="24"
  viewBox="0 0 24 24"
  fill="none"
  xmlns="http://www.w3.org/2000/svg"
>
  <path
    d="M9 8C8.44772 8 8 8.44772 8 9C8 9.55229 8.44772 10 9 10H11V12C11 12.5523 11.4477 13 12 13C12.5523 13 13 12.5523 13 12V10H15C15.5523 10 16 9.55229 16 9C16 8.44772 15.5523 8 15 8H13V6C13 5.44772 12.5523 5 12 5C11.4477 5 11 5.44772 11 6V8H9Z"
    fill="currentColor"
  />
  <path
    fill-rule="evenodd"
    clip-rule="evenodd"
    d="M4 9C4 4.58172 7.58172 1 12 1C16.4183 1 20 4.58172 20 9C20 13.4183 16.4183 17 12 17C7.58172 17 4 13.4183 4 9ZM12 15C8.68629 15 6 12.3137 6 9C6 5.68629 8.68629 3 12 3C15.3137 3 18 5.68629 18 9C18 12.3137 15.3137 15 12 15Z"
    fill="currentColor"
  />
  <path
    d="M5 20C4.44772 20 4 20.4477 4 21C4 21.5523 4.44772 22 5 22H19C19.5523 22 20 21.5523 20 21C20 20.4477 19.5523 20 19 20H5Z"
    fill="currentColor"
  />
</svg>

<svg viewBox="0 0 24 24" xmlns="http://www.w3.org/2000/svg"><g><path d="M9 8c-.56 0-1 .44-1 1 0 .55.44 1 1 1h2v2c0 .55.44 1 1 1 .55 0 1-.45 1-1v-2h2c.55 0 1-.45 1-1 0-.56-.45-1-1-1h-2V6c0-.56-.45-1-1-1 -.56 0-1 .44-1 1v2H9Z"/><path fill-rule="evenodd" d="M4 9c0-4.42 3.58-8 8-8 4.41 0 8 3.58 8 8 0 4.41-3.59 8-8 8 -4.42 0-8-3.59-8-8Zm8 6c-3.32 0-6-2.69-6-6 0-3.32 2.68-6 6-6 3.31 0 6 2.68 6 6 0 3.31-2.69 6-6 6Z"/><path d="M5 20c-.56 0-1 .44-1 1 0 .55.44 1 1 1h14c.55 0 1-.45 1-1 0-.56-.45-1-1-1H5Z"/></g></svg>
